clinic/img/icons/arrow_u.svg

<svg width="24" height="24" viewBox="0 0 24 24" fill="none" xmlns="http://www.w3.org/2000/svg">
<path d="M16.9596 13.7903C17.2135 14.0442 17.2135 14.4557 16.9596 14.7096C16.7058 14.9634 16.2942 14.9634 16.0404 14.7096L16.9596 13.7903ZM11.5404 10.2096C11.2865 9.95572 11.2865 9.54416 11.5404 9.29032C11.7942 9.03648 12.2058 9.03648 12.4596 9.29032L11.5404 10.2096ZM16.0404 14.7096L11.5404 10.2096L12.4596 9.29032L16.9596 13.7903L16.0404 14.7096Z" fill="white"/>
<path d="M7.04038 13.7903C6.78654 14.0442 6.78654 14.4557 7.04038 14.7096C7.29422 14.9634 7.70578 14.9634 7.95962 14.7096L7.04038 13.7903ZM12.4596 10.2096C12.7135 9.95572 12.7135 9.54416 12.4596 9.29032C12.2058 9.03648 11.7942 9.03648 11.5404 9.29032L12.4596 10.2096ZM7.95962 14.7096L12.4596 10.2096L11.5404 9.29032L7.04038 13.7903L7.95962 14.7096Z" fill="white"/>
</svg>

<svg width="24" height="24" fill="none" xmlns="http://www.w3.org/2000/svg"><path d="M16.96 13.79a.65.65 0 11-.92.92l.92-.92zm-5.42-3.58a.65.65 0 11.92-.92l-.92.92zm4.5 4.5l-4.5-4.5.92-.92 4.5 4.5-.92.92z" fill="#fff"/><path d="M7.04 13.79a.65.65 0 00.92.92l-.92-.92zm5.42-3.58a.65.65 0 10-.92-.92l.92.92zm-4.5 4.5l4.5-4.5-.92-.92-4.5 4.5.92.92z" fill="#fff"/></svg>
